X: 07035
T: FIDDLE and DANCE
C: Bob McQuillen 24 Aug 84
B: Bob's Note Book 7 #35
%R: reel
Z: 2021 John Chambers <jc:trillian.mit.edu>
M: C
L: 1/8
K: G
GE \
| DGBd BGEG | BdBG EDGE | DGBd BGEG | BdBG A2GE |\
| DGBd BGEG | BdBG EDGA | Bdeg dBeg | dBAB G2 :|
|: Bc \
| dgbg ageg | bgag edge | dgbg aged | gedB A2Bc |\
| dgbg ageg | abag edge | degd e2ge | dBAB G2 :|
%%begintext align
%% Fiddle and
%% Dance, Ashokan, Root Camp; these are
%% all names for the same beautiful musical
%% experience you get when you go there. What a
%% wonderful time I had - I'll never forget it!
%%endtext

%%sep 1 1 500

%%sep 1 1 500

